X:1
T:Can It Be Right?
T:Philip Paul Bliss (1838-1876)
T:Can It Be Right?
T:Public Domain
T:Public Domain
C:Philip Paul Bliss (1838-1876)
Z:Public Domain
%%score ( 1 2 ) ( 3 4 )
L:1/8
M:9/8
K:Ab
V:1 treble 
V:2 treble 
V:3 bass 
V:4 bass 
V:1
 [CE][=B,=D][CE] | [CA]3 [CA]3 (BA)[EB] | [Ec]6 [Ec][=D=B][Ec] | [DF]3 [FB]3 (BA)[EG] | %4
w: 1.~Can it be|right for me * to|On in this dark,|un- cer- tain * way?|
w: 2.~Can it be|right in doubt * to|Wait for the day|that tries the * heart,|
w: 3.~Can it be|right such loads * to|While He says, “Come,|I’ll give you * rest”?|
w: 4.~Can it be|right to doubt * His|Both to for- give|and van- quish * sin?|
w: 5.~Can it be|right no soul * to|Lest I should prove|un- fit to * guide?|
w: 6.~Can it be|right with such * a|Ev- en to dread|the hour of * death?|
 [EA]6 [CE][=B,=D][CE] | [CA]3 [CA]3 (BA)[EB] | [Ec]6 [Ec][=D=B][Ec] | [DF]3 [FB]3 (BA)[DG] | %8
w: “I be- lieve,” and|yet not know * Whe-|my sins are put|a- way? * * *|
w: I shall learn what|is my state, * Fear-|the Judge should say,|“De- part”? * * *|
w: ding me cast on|Him my care, * Lean-|in love, up- on|His breast. I * will|
w: en in trials of|dark- est hour, * Can|His love give peace|with- in? * * *|
w: He not teach my|tongue to speak, * Will|not am- ple strength|pro- vide? * * *|
w: ing in faith the|great re- ward, * Calm-|I’ll yield my dy-|ing breath. * * *|
 [CA]6 ||"^Refrain" [Ec][=D=B][Ec] | [Ee]3 [Ec]3 [Ec][DB][CA] | [EB]6 [EA][EG][EA] | %12
w: ||||
w: ||||
w: long-|er doubt Thee,|O Lord! I will for-|ev- er rest in|
w: ||||
w: ||||
w: ||||
 [Ec]3 [CA]3 [DB][CA][DG] | [CA]6 |] %14
w: ||
w: ||
w: Thy Word. * * *||
w: ||
w: ||
w: ||
V:2
 x3 | x6 E2 x | x9 | x6 E2 x | x9 | x6 E2 x | x9 | x6 E2 x | x6 || x3 | x9 | x9 | x9 | x6 |] %14
w: |go||Say,||ther|||||||||
w: |wait,||Ere||ing|||||||||
w: |bear,||Bid-||ing||no|||||||
w: |pow’r,||Ev-||not|||||||||
w: |seek,||Can||He|||||||||
w: |Lord,||Wait-||ly|||||||||
V:3
 [A,,A,][A,,A,][A,,A,] | [A,,A,]3 [A,,A,]3 (G,F,)[E,G,] | A,6 A,A,A, | [D,A,]3 [D,D]3 (DC)[E,A,] | %4
 [A,,C]6 [A,,A,][A,,A,][A,,A,] | [A,,A,]3 [A,,A,]3 (G,F,)[E,G,] | A,6 [A,,A,][A,,A,][A,,A,] | %7
 [D,A,]3 [D,D]3 (DC)[E,B,] | [A,,A,]6 || A,A,A, | [A,C]3 [A,,A,]3 [A,,A,][A,,A,][A,,A,] | %11
 [E,G,]6 [C,A,][B,,B,][A,,C] | [E,A,]3 E,3 [E,G,][E,A,][E,B,] | [A,,A,]6 |] %14
V:4
 x3 | x6 E,2 x | A,6 A,A,A, | x6 E,2 x | x9 | x6 E,2 x | A,6 x3 | x6 E,2 x | x6 || A,A,A, | x9 | %11
 x9 | x3 E,3 x3 | x6 |] %14

